src/assets/img/providers/microgaming-g.svg

<svg width="122" height="30" viewBox="0 0 122 30" fill="none" xmlns="http://www.w3.org/2000/svg">
<path fill-rule="evenodd" clip-rule="evenodd" d="M0 15.0506C0 6.7259 6.74994 0 15.0767 0C20.1668 0 24.8973 2.56356 27.6914 6.7259C32.2559 13.6723 30.3194 22.9894 23.3482 27.5376C16.3769 32.0859 7.02658 30.1563 2.46207 23.2099C3.126 22.19 3.78993 21.1425 4.42619 20.095C5.44975 18.4687 6.41798 16.8423 7.35855 15.1884L8.05014 13.948C8.29911 13.5345 8.52042 13.121 8.74173 12.7075C9.01837 12.2114 9.295 11.6876 9.57164 11.1639V13.3415C9.59931 14.8852 9.65463 16.4013 9.82061 17.9449C9.90361 18.7168 10.0143 19.5161 10.1802 20.288C10.3462 21.1425 10.6229 21.9694 11.0102 22.7413C11.2591 23.2374 11.6188 23.6785 12.0337 24.0368C12.3103 24.2574 12.6146 24.4503 12.9466 24.5606C13.2786 24.6708 13.6659 24.726 14.0255 24.6984L14.5234 24.6157C14.5891 24.6157 14.6375 24.5984 14.6959 24.5776C14.7113 24.5721 14.7274 24.5663 14.7448 24.5606L14.8554 24.533H14.9107L14.9937 24.5054H15.0214L15.1597 24.4503L15.4087 24.3125C15.547 24.2574 15.6577 24.1747 15.7683 24.092C16.1279 23.7888 16.4876 23.4855 16.7919 23.1272C17.3175 22.5208 17.8154 21.8592 18.258 21.1701C18.7007 20.5085 19.088 19.8469 19.4752 19.1302C20.2498 17.7795 20.9138 16.4289 21.5777 15.0782L21.5777 15.0782C21.6764 14.8979 21.7652 14.7079 21.856 14.514L21.856 14.514L21.856 14.5139C21.9179 14.3816 21.9807 14.2475 22.048 14.1134C22.1308 14.2968 22.2106 14.4802 22.2903 14.6636L22.2903 14.6637L22.2904 14.6637L22.2904 14.6638L22.2904 14.6639L22.2905 14.664L22.2905 14.664L22.2905 14.6641L22.2906 14.6642L22.2906 14.6643L22.2908 14.6647C22.4506 15.0322 22.6105 15.3997 22.7949 15.7673C23.2098 16.5667 23.6525 17.3661 24.1781 18.1103C24.7037 18.8546 25.3123 19.5437 26.0039 20.1501C26.1145 20.2604 26.3082 20.2604 26.4465 20.1501C26.5848 20.0399 26.6125 19.8194 26.5018 19.654C25.9762 18.9924 25.5613 18.2757 25.2293 17.5039C24.8973 16.7321 24.6207 15.9327 24.3994 15.1333C24.1781 14.3339 24.0121 13.5069 23.8738 12.68C23.7908 12.2665 23.7355 11.853 23.6801 11.4396L23.5971 10.8056C23.5695 10.585 23.5418 10.3645 23.5418 10.1991C23.4588 9.73051 23.1545 9.3446 22.7119 9.1792C22.0203 8.90355 21.2181 9.23434 20.9414 9.92347C20.6648 10.585 20.3605 11.2742 20.0562 11.9357C19.8748 12.3464 19.6836 12.7473 19.4944 13.1443L19.4943 13.1445C19.366 13.4135 19.2385 13.6807 19.1156 13.948C18.4794 15.2711 17.8154 16.5667 17.0962 17.8347C16.7365 18.4687 16.3769 19.1027 15.9896 19.6815C15.63 20.2604 15.215 20.7841 14.7724 21.3079C14.5788 21.5284 14.3851 21.7214 14.1638 21.8868C14.15 21.9005 14.1292 21.9143 14.1085 21.9281L14.1085 21.9281C14.0877 21.9419 14.067 21.9557 14.0532 21.9694L13.9702 21.997H13.9425L13.8872 22.0246H13.8319C13.8114 22.0246 13.8061 22.0283 13.8033 22.0303L13.8021 22.0311L13.8013 22.0314C13.7994 22.0319 13.7969 22.0301 13.7869 22.023C13.7794 22.0177 13.7677 22.0095 13.7489 21.997C13.6105 21.8592 13.4999 21.6938 13.4169 21.5284C13.1403 20.9771 12.9466 20.3707 12.836 19.7642C12.6976 19.0751 12.587 18.386 12.504 17.6968C12.3657 16.291 12.2827 14.8301 12.2827 13.3691C12.2827 11.9082 12.3103 10.4196 12.3657 8.95868C12.3926 8.59675 12.4129 8.23481 12.4331 7.87605V7.87603L12.4331 7.87601L12.4331 7.87598L12.4331 7.87595L12.4331 7.87592V7.87591C12.4545 7.49698 12.4756 7.12159 12.504 6.75347C12.5245 6.48745 12.5565 6.21763 12.5886 5.94683L12.5886 5.94679C12.643 5.48804 12.6976 5.02648 12.6976 4.57582C12.7253 3.99695 12.421 3.47321 11.9231 3.19756C11.2315 2.89434 10.4292 3.17 10.0973 3.83156L10.0419 3.91426L9.43332 5.15469C9.23968 5.54059 9.01838 5.95406 8.79707 6.36753L8.79706 6.36756C8.74319 6.46821 8.69095 6.56722 8.63916 6.6654C8.47819 6.97055 8.3215 7.2676 8.13313 7.58042C7.88416 7.9939 7.66285 8.37982 7.44154 8.79329C6.99892 9.59268 6.52863 10.3921 6.03069 11.1915C5.80938 11.5774 5.5604 11.9909 5.31143 12.3768L4.56451 13.5621C3.54095 15.1333 2.5174 16.6769 1.46618 18.2206C1.2172 18.6341 0.940566 19.02 0.663929 19.4059C0.22131 18.0001 0 16.5391 0 15.0506ZM43.2124 10.475V20.4536V20.4812H44.5402V9.42755H42.1611L39.3671 18.1933L36.5178 9.42755H34.1663V20.4536H35.4942V10.475H35.7432L38.9522 20.4812H39.7544L42.9634 10.475H43.2124ZM46.4796 10.8609V9.42755H47.9181V10.8609H46.4796ZM46.5073 20.4536V11.936H47.9181V20.4536H46.5073ZM53.0616 20.591C55.8279 20.591 56.4642 19.323 56.4642 17.6691L55.1363 17.6139C55.1363 18.9646 54.666 19.6262 53.0616 19.6262C50.9038 19.6262 50.7931 18.4685 50.7931 16.153C50.7931 13.8375 50.9038 12.6798 53.0616 12.6798C54.666 12.6798 55.1363 13.3414 55.1363 14.692H56.4642C56.4642 13.0381 55.8279 11.7701 53.0616 11.7701C49.5759 11.7701 49.3823 13.7548 49.3823 16.1806C49.3823 18.6063 49.5759 20.591 53.0616 20.591ZM59.2048 12.8452L59.2726 12.803C59.9265 12.3952 60.7533 11.8795 61.5285 11.8529C61.6945 11.8253 61.8605 11.8253 62.0265 11.8253C62.2478 11.8253 62.4414 11.8253 62.6904 11.8529L62.5798 12.8728C62.3585 12.8452 62.1648 12.8452 61.9712 12.8452C61.8052 12.8452 61.6392 12.8452 61.4456 12.8728C60.8136 12.8961 60.142 13.2944 59.5983 13.6168C59.4995 13.6754 59.4048 13.7316 59.3155 13.7825V20.4808H57.9046V11.9356H59.0112L59.2048 12.8452ZM66.8654 20.619C70.4064 20.619 70.6 18.6343 70.6 16.2085C70.6 13.7828 70.4064 11.7981 66.8654 11.7981C63.3244 11.7981 63.1307 13.7828 63.1307 16.2085C63.1307 18.6343 63.3244 20.619 66.8654 20.619ZM66.8654 19.6817C64.6523 19.6817 64.5416 18.524 64.5416 16.2085C64.5416 13.8655 64.6523 12.7353 66.8654 12.7353C69.0785 12.7353 69.1892 13.8655 69.1892 16.2085C69.1892 18.5516 69.0785 19.6817 66.8654 19.6817ZM73.1755 22.4383C73.7011 22.4934 74.3926 22.521 75.1672 22.521C77.325 22.521 77.6016 21.9421 77.6293 19.6818C76.993 20.0401 76.1078 20.4536 75.1949 20.4812C72.0689 20.5363 71.8753 18.8548 71.8753 16.2085C71.8753 13.5623 72.0412 11.7981 75.0566 11.7981C76.0801 11.7981 77.0207 12.2667 77.7676 12.7353L77.9059 11.9635H79.0124V19.5164C79.0124 22.5761 78.3209 23.5133 75.4992 23.5133C74.6693 23.5133 73.8394 23.4307 73.0371 23.3204L73.1755 22.4383ZM77.6293 13.5071C77.0207 13.1212 76.2461 12.7353 75.4992 12.7353C73.4244 12.7353 73.2861 13.8931 73.2861 16.2085C73.2861 18.4689 73.4244 19.5439 75.4992 19.5439C76.2461 19.5439 77.0483 19.1305 77.6293 18.8272V13.5071ZM86.5329 19.6817L86.6712 20.4536H87.7501V11.9359H86.6435L86.5052 12.6802C85.8136 12.2667 84.9007 11.7981 83.8772 11.7981C80.7789 11.7981 80.6129 13.5071 80.6129 16.2085C80.6129 18.9099 80.8065 20.6741 83.9325 20.619C84.9284 20.619 85.8413 20.1228 86.5329 19.6817ZM84.2645 12.7353C85.0114 12.7353 85.8136 13.1212 86.3946 13.452V18.9099C85.786 19.2683 85.0114 19.6817 84.2645 19.6817C82.1897 19.6817 82.0514 18.524 82.0514 16.2085C82.0514 13.8931 82.1897 12.7353 84.2645 12.7353ZM90.7396 12.6801C91.3759 12.2942 92.2334 11.8255 93.1463 11.798C94.5848 11.7428 95.3318 12.1288 95.6914 12.7352C96.3553 12.3217 97.2406 11.8255 98.2088 11.798C101.141 11.7153 101.335 13.2038 101.335 15.2712V20.4534H99.9239V15.3539C99.9239 13.5897 99.8133 12.7352 97.9045 12.7352C97.2129 12.7352 96.4936 13.1487 95.9127 13.507C96.051 14.1135 96.1063 14.7474 96.0787 15.3814V20.481H94.8615V15.3539C94.8615 13.5897 94.7508 12.7352 92.842 12.7352C92.2095 12.7352 91.5268 13.1105 90.9852 13.4082L90.9056 13.4519V20.4534H89.4947V11.9358H90.6013L90.7396 12.6801ZM103.076 9.42755V10.8609H104.515V9.42755H103.076ZM103.104 11.936V20.4536H104.515V11.936H103.104ZM107.503 12.6802C108.195 12.2943 109.107 11.8256 110.103 11.7981C113.229 11.7154 113.423 13.2039 113.423 15.2713V20.4536H112.012V15.354C112.012 13.5898 111.874 12.7353 109.799 12.7353C109.052 12.7353 108.25 13.1488 107.669 13.4796V20.4811H106.258V11.9359H107.365L107.503 12.6802ZM118.155 22.521C117.38 22.521 116.689 22.4934 116.163 22.4383L116.025 23.3204C116.827 23.4307 117.657 23.5133 118.487 23.5133C121.308 23.5133 122 22.5761 122 19.5164V11.9635H120.893L120.755 12.7353C120.008 12.2667 119.068 11.7981 118.044 11.7981C115.029 11.7981 114.863 13.5623 114.863 16.2085C114.863 18.8548 115.056 20.5363 118.182 20.4812C119.095 20.4536 119.981 20.0401 120.617 19.6818C120.589 21.9421 120.313 22.521 118.155 22.521ZM118.459 12.7353C119.206 12.7353 119.981 13.1212 120.589 13.5071V18.8272C120.008 19.1305 119.206 19.5439 118.459 19.5439C116.384 19.5439 116.246 18.4689 116.246 16.2085C116.246 13.8931 116.384 12.7353 118.459 12.7353Z" fill="#00AB55"/>
</svg>

<svg xmlns="http://www.w3.org/2000/svg" width="122" height="30" fill="none"><path fill="#00AB55" fill-rule="evenodd" d="M0 15.05C0 6.727 6.75 0 15.077 0c5.09 0 9.82 2.564 12.614 6.726 4.565 6.946 2.628 16.263-4.343 20.812-6.971 4.548-16.321 2.618-20.886-4.328.664-1.02 1.328-2.068 1.964-3.115a127.552 127.552 0 0 0 2.933-4.907l.691-1.24c.25-.414.47-.827.692-1.24.276-.497.553-1.02.83-1.544v2.178c.027 1.543.083 3.06.249 4.603.083.772.193 1.571.36 2.343.165.854.442 1.681.83 2.453.248.496.608.938 1.023 1.296.276.22.58.413.913.524.332.11.719.165 1.079.137l.497-.082c.066 0 .114-.018.173-.038.015-.006.031-.012.049-.017l.11-.028h.056l.083-.028h.027l.139-.055.249-.137c.138-.056.249-.138.36-.221.359-.303.719-.607 1.023-.965a17.203 17.203 0 0 0 1.466-1.957c.443-.662.83-1.323 1.217-2.04.775-1.35 1.439-2.701 2.103-4.052.098-.18.187-.37.278-.564.062-.132.125-.266.192-.4.083.183.163.366.242.55.16.368.32.736.505 1.103.415.8.857 1.6 1.383 2.343a11.624 11.624 0 0 0 1.826 2.04c.11.11.304.11.442 0 .139-.11.166-.33.056-.496a9.383 9.383 0 0 1-1.273-2.15 18.532 18.532 0 0 1-.83-2.37c-.22-.8-.387-1.627-.525-2.454-.083-.413-.139-.827-.194-1.24l-.083-.634c-.027-.221-.055-.441-.055-.607a1.314 1.314 0 0 0-.83-1.02c-.692-.275-1.494.055-1.77.744-.277.662-.582 1.351-.886 2.013-.181.41-.372.811-.562 1.208-.128.27-.256.537-.378.804a64.576 64.576 0 0 1-2.02 3.887c-.36.634-.72 1.268-1.106 1.846-.36.58-.775 1.103-1.218 1.627-.193.22-.387.413-.608.579-.014.014-.035.027-.056.041a.386.386 0 0 0-.055.041l-.083.028h-.027l-.056.028h-.055c-.02 0-.026.003-.029.005v.001H13.8c-.002 0-.004 0-.014-.008a1.534 1.534 0 0 0-.038-.026 1.809 1.809 0 0 1-.332-.469 6.606 6.606 0 0 1-.581-1.764 26.72 26.72 0 0 1-.332-2.067 44.435 44.435 0 0 1-.221-4.328c0-1.46.027-2.95.083-4.41.027-.362.047-.724.067-1.083.021-.379.043-.754.071-1.123.02-.266.053-.535.085-.806.054-.459.109-.92.109-1.371a1.487 1.487 0 0 0-.775-1.378c-.691-.304-1.494-.028-1.826.634l-.055.082-.609 1.24c-.193.387-.415.8-.636 1.214l-.158.297c-.16.306-.317.603-.506.915-.249.414-.47.8-.691 1.213-.443.8-.913 1.6-1.411 2.399-.222.385-.47.799-.72 1.185l-.746 1.185a272.71 272.71 0 0 1-3.099 4.659c-.249.413-.525.799-.802 1.185A14.46 14.46 0 0 1 0 15.05Zm43.212-4.575V20.481h1.328V9.428h-2.379l-2.794 8.765-2.85-8.765h-2.35v11.026h1.327v-9.979h.25l3.208 10.006h.802l3.21-10.006h.248Zm3.268.386V9.428h1.438v1.433H46.48Zm.027 9.593v-8.518h1.411v8.518h-1.41Zm6.555.137c2.766 0 3.402-1.268 3.402-2.922l-1.328-.055c0 1.35-.47 2.012-2.074 2.012-2.158 0-2.269-1.158-2.269-3.473s.11-3.473 2.269-3.473c1.604 0 2.074.661 2.074 2.012h1.328c0-1.654-.636-2.922-3.402-2.922-3.486 0-3.68 1.985-3.68 4.41 0 2.426.194 4.411 3.68 4.411Zm6.143-7.746.068-.042c.653-.408 1.48-.924 2.255-.95.166-.028.333-.028.498-.028.222 0 .415 0 .664.028l-.11 1.02c-.221-.028-.415-.028-.609-.028-.166 0-.332 0-.525.028-.632.023-1.304.421-1.848.744-.099.058-.193.115-.282.165v6.699h-1.411v-8.545h1.106l.194.91Zm7.66 7.774c3.541 0 3.735-1.985 3.735-4.41 0-2.426-.194-4.41-3.735-4.41-3.54 0-3.734 1.984-3.734 4.41 0 2.425.193 4.41 3.734 4.41Zm0-.937c-2.213 0-2.323-1.158-2.323-3.473 0-2.343.11-3.474 2.323-3.474 2.214 0 2.324 1.13 2.324 3.474 0 2.343-.11 3.473-2.324 3.473Zm6.31 2.756c.526.055 1.218.083 1.992.083 2.158 0 2.435-.579 2.462-2.84-.636.36-1.521.773-2.434.8-3.126.055-3.32-1.626-3.32-4.273 0-2.646.166-4.41 3.182-4.41 1.023 0 1.964.469 2.71.937l.139-.771h1.106v7.552c0 3.06-.691 3.997-3.513 3.997-.83 0-1.66-.082-2.462-.193l.138-.882Zm4.454-8.93c-.608-.387-1.383-.773-2.13-.773-2.075 0-2.213 1.158-2.213 3.474 0 2.26.138 3.335 2.213 3.335.747 0 1.55-.413 2.13-.717v-5.32Zm8.904 6.174.138.772h1.08v-8.518h-1.108l-.138.744c-.691-.413-1.604-.882-2.628-.882-3.098 0-3.264 1.71-3.264 4.41 0 2.702.194 4.466 3.32 4.411.995 0 1.908-.496 2.6-.937Zm-2.269-6.947c.747 0 1.55.386 2.13.717v5.458c-.608.358-1.383.772-2.13.772-2.074 0-2.213-1.158-2.213-3.473 0-2.316.139-3.474 2.213-3.474Zm6.476-.055c.636-.386 1.493-.854 2.406-.882 1.439-.055 2.186.33 2.545.937.664-.413 1.55-.91 2.518-.937 2.932-.083 3.126 1.406 3.126 3.473v5.182h-1.411v-5.1c0-1.763-.11-2.618-2.02-2.618-.691 0-1.41.414-1.991.772a7.07 7.07 0 0 1 .166 1.874v5.1h-1.217v-5.127c0-1.764-.111-2.619-2.02-2.619-.632 0-1.315.376-1.857.673l-.08.044v7.001h-1.41v-8.517H90.6l.139.744Zm12.336-3.252v1.433h1.439V9.428h-1.439Zm.028 2.508v8.518h1.411v-8.518h-1.411Zm4.399.744c.692-.386 1.604-.854 2.6-.882 3.126-.083 3.32 1.406 3.32 3.473v5.183h-1.411v-5.1c0-1.764-.138-2.619-2.213-2.619-.747 0-1.549.414-2.13.745v7.001h-1.411v-8.545h1.107l.138.744Zm10.652 9.841c-.775 0-1.466-.028-1.992-.083l-.138.882c.802.11 1.632.193 2.462.193 2.821 0 3.513-.937 3.513-3.997v-7.552h-1.107l-.138.771c-.747-.468-1.687-.937-2.711-.937-3.015 0-3.181 1.764-3.181 4.41 0 2.647.193 4.328 3.319 4.273.913-.027 1.799-.44 2.435-.8-.028 2.261-.304 2.84-2.462 2.84Zm.304-9.786c.747 0 1.522.386 2.13.772v5.32c-.581.303-1.383.717-2.13.717-2.075 0-2.213-1.075-2.213-3.335 0-2.316.138-3.474 2.213-3.474Z" clip-rule="evenodd"/></svg>
